X:70
T:Morris simple chords 2
M:3/4
L:1/8
K:Em
D2 [G2G,2B,2D2] Bc | d2 ef [g2G,2B,2D2] | a2 b4 | [g2G,2B,2D2] d2 de | dc [B4G,4B,4D4] |
G4 [G2G,2B,2D2] | Bc d2 ef | [g2G,2B,2D2] a2 b4 | [g2G,2B,2D2] d2 |
de dc [B4G,4B,4D4] | G4 | [e2C,2E,2G,2] c2 e2 | ge [d2G,2B,2D2] B2 |
d4 [A2D,2F,2A,2C2] | d2 de dc | [B4G,4B,4D4] d4 | [e2C,2E,2G,2] c2 |
e2 ge [d2G,2B,2D2] | B2 d4 | [A2D,2F,2A,2C2] d2 de | dc [B4G,4B,4D4] |
G4 [d2D,,2] | [cD,F,A,C][BG,,] A[GG,B,D] [d2D,,2] | [cD,F,A,C][BG,,] A[GG,B,D] [e2C,,2] | [dC,E,G,][cC,,] B[cC,E,G,] [e2C,,2] |
[C,E,G,][g2C,,2][C,E,G,] [d2D,,2] | [cD,F,A,C][BG,,] A[GG,B,D] [d2D,,2] | [cD,F,A,C][BG,,] A[GG,B,D] [e2C,,2] | [dC,E,G,][cC,,] B[cC,E,G,] [e2C,,2] |
[C,E,G,][g2C,,2][C,E,G,] [e2C,,2] | [dC,E,G,][cC,,] B[cC,E,G,] [e2C,,2] | [C,E,G,][g2B,,2]B,, [e2A,,2] | [dA,CE][cA,,] B[cA,CE] [e2A,,2] |
[A,CE][gA,,] f[eA,CE] [d2D,,2] | [eD,F,A,][f2D,,2][gD,F,A,] [a2D,,2] | [gD,F,A,][fD,,] e[dD,F,A,] [e2C,,2] | [gC,E,G,][f2D,,2][aD,F,A,C] [g2G,,2] |
[G,B,D][gG,,] f[eG,B,D] [d2D,,2] | [eD,F,A,][f2D,,2][gD,F,A,] [a2D,,2] | [gD,F,A,][fD,,] e[dD,F,A,] [e2C,,2] | [gC,E,G,][f2D,,2][aD,F,A,C] [g2G,,2] |
[G,B,D][G2G,,2][G,B,D] [G2G,,2] | [GG,B,D]G [B2G,,2] [B2G,2B,2D2] | [d2G,,2] [d2G,2B,2D2] [g2G,,2] | [G,2B,2D2] [d2G,,2] [B2G,2B,2D2] |
[dC,,]c [AC,E,G,]B [c2A,,2] | [A2A,2C2E2] [GD,,]F [ED,F,A,C]D | [G2G,,2] [GG,B,D]G [B2G,,2] | [B2G,2B,2D2] [d2G,,2] [d2G,2B,2D2] |
[g2G,,2] [G,2B,2D2] [d2G,,2] | [B2G,2B,2D2] [dD,,]c [AD,F,A,C]F | [G2G,,2] [G,2B,2D2] [G2G,,2] | [D2G,2B,2D2] [G2G,,2] [GG,B,D]G |
[B2G,,2] [B2G,2B,2D2] [d2G,,2] | [d2G,2B,2D2] [g2G,,2] [G,2B,2D2] | [d2G,,2] [B2G,2B,2D2] [dC,,]c | [AC,E,G,]B [c2A,,2] [A2A,2C2E2] |
[GD,,]F [ED,F,A,C]D [G2G,,2] | [GG,B,D]G [B2G,,2] [B2G,2B,2D2] | [d2G,,2] [d2G,2B,2D2] [g2G,,2] | [G,2B,2D2] [d2G,,2] [B2G,2B,2D2] |
[dD,,]c [AD,F,A,C]F [G2G,,2] | [G,2B,2D2] [G2G,,2] [dG,B,D]c | [B2G,,2] [G2G,2B,2D2] [B2G,,2] | [d2G,2B,2D2] [A2D,,2] [D,2F,2A,2C2] |
D,,2 [dD,F,A,C]c [B2G,,2] | [G2G,2B,2D2] [B2G,,2] [d2G,2B,2D2] | [A2D,,2] [D,2F,2A,2C2] D,,2 | [dD,F,A,C]c [B2G,,2] [G2G,2B,2D2] |
[B2G,,2] [d2G,2B,2D2] [A2D,,2] | [D,F,A,C]B [A2D,,2] [BD,F,A,C]c | [d2G,,2] [BG,B,D]c [dD,,]c | [BD,F,A,C]A [G2G,,2] [G,2B,2D2] |
[G2G,,2] [dG,B,D]c [B2G,,2] | [G2G,2B,2D2] [B2G,,2] [d2G,2B,2D2] | [A2D,,2] [D,2F,2A,2C2] D,,2 | [dD,F,A,C]c [B2G,,2] [G2G,2B,2D2] |
[B2G,,2] [d2G,2B,2D2] [A2D,,2] | [D,2F,2A,2C2] D,,2 [dD,F,A,C]c | [B2G,,2] [G2G,2B,2D2] [B2G,,2] | [d2G,2B,2D2] [A2D,,2] [D,F,A,C]B |
[A2D,,2] [BD,F,A,C]c [d2G,,2] | [BG,B,D]c [dD,,]c [BD,F,A,C]A | [G2G,,2] [G,2B,2D2] G,,2 | [B2G,2B,2D2] G2 B2 |
d2 [A2D,,2] [D,2F,2A,2C2] | D,,2 [dD,F,A,C]c [B2G,,2] | [G2G,2B,2D2] [B2G,,2] [d2G,2B,2D2] | [A2D,,2] [D,2F,2A,2C2] D,,2 |
[dD,F,A,C]c [B2G,,2] [G2G,2B,2D2] | [B2G,,2] [d2G,2B,2D2] [A2D,,2] | [D,F,A,C]B [A2D,,2] [BD,F,A,C]c | [d2G,,2] [BG,B,D]c [dD,,]c |
[BD,F,A,C]A |


